numeric-8-box-multiple-outline.svg

<svg fill="currentColor" viewBox="0 0 24 24"><path d="M13 11h2v2h-2m0-6h2v2h-2m0 6h2a2 2 0 0 0 2-2v-1.5a1.5 1.5 0 0 0-1.5-1.5A1.5 1.5 0 0 0 17 8.5V7a2 2 0 0 0-2-2h-2a2 2 0 0 0-2 2v1.5a1.5 1.5 0 0 0 1.5 1.5 1.5 1.5 0 0 0-1.5 1.5V13a2 2 0 0 0 2 2m8 2H7V3h14m0-2H7a2 2 0 0 0-2 2v14a2 2 0 0 0 2 2h14a2 2 0 0 0 2-2V3a2 2 0 0 0-2-2M3 5H1v16a2 2 0 0 0 2 2h16v-2H3z"/></svg>

<svg  viewBox="0 0 24 24" fill="currentColor"><path  d="M13,11H15V13H13M13,7H15V9H13M13,15H15A2,2 0 0,0 17,13V11.5A1.5,1.5 0 0,0 15.5,10A1.5,1.5 0 0,0 17,8.5V7C17,5.89 16.1,5 15,5H13A2,2 0 0,0 11,7V8.5A1.5,1.5 0 0,0 12.5,10A1.5,1.5 0 0,0 11,11.5V13C11,14.11 11.9,15 13,15M21,17H7V3H21M21,1H7A2,2 0 0,0 5,3V17A2,2 0 0,0 7,19H21A2,2 0 0,0 23,17V3A2,2 0 0,0 21,1M3,5H1V21A2,2 0 0,0 3,23H19V21H3V5Z"/></svg>
